X: 1
T: Emily's
R: hornpipe
M: 4/4
L: 1/8
K: Gmaj
|:B>G D>B A>D E/F/A|G>B A/G/F G>D B,>D|C>E G,>E D>G B/c/d|c>B A>G F>^c (3dc=c|
B>G D>B A>D E/F/A|G>B A/G/F G>D B,>D|C>E G,>E D>G B/c/d|1 c>A F>A G>c (3d^c=c:|2 c>A F>A G>D (3CB,A,||
|:G,>B, D>G B>D G>=F|E>G, (3CEG c>B A>G|F>A, (3DFA (d2 d>)d|e>d d>c B>G (3EDC|
B,>G, B,>D G>G, =F>G,|E>G, (3CEG c>B A>G|F>E F>G A>c B>A|1 (3GBd (3gdB G2 D>C:|2 (3GBd (3gdB G2 (3d^c=c||

